!!!!SEGMENT: Ver3018-Madonna_per_voi_ardo.krn
!!!id: Ver3018
!!!AGN: Madrigal
!!!SCT: Slim (1972)
!!!voices: 4
!!!COM: Philippe Verdelot
!!!OTL: Madonna, per voi ardo
**kern	**kern	**kern	**kern
*part4	*part3	*part2	*part1
*staff4	*staff3	*staff2	*staff1
*I"Bassus	*I"Tenor	*I"Altus	*I"Superius
*I'B	*I'T	*I'A	*I'S
*clefF4	*clefGv2	*clefGv2	*clefG2
*k[b-]	*k[b-]	*k[b-]	*k[b-]
*F:	*F:	*F:	*F:
*M2/1	*M2/1	*M2/1	*M2/1
*met(C)	*met(C)	*met(C)	*met(C)
=1	=1	=1	=1
1GG	1G	1B-y	1d
[1C	[1G	[1c	[1e
=2	=2	=2	=2
1C]	1G]	1c]	1e]
1GG	1G	1B-y	2d
.	.	.	[2d
=3	=3	=3	=3
2D	2F	2A	2d]
2E	2G	1G	2c
1D	1A	.	1d
.	.	2F#i	.
=4	=4	=4	=4
2GG	2B-y	2G	2d
2GG	2d	2B-y	2b-y
2AA	2c	2c	2a
2BB-y	2B-y	2d	2g
=5	=5	=5	=5
2C	2A	2e	2g
2D	1A	1d	2f
1E	.	.	1g
.	2G	2c	.
=6	=6	=6	=6
1D	1A	1d	1f
2r	2r	2r	2r
2D	2A	2d	2f
=7	=7	=7	=7
2D	2A	2d	2f
2D	2A	2d	2f
1C	1c	1e	1g
=8	=8	=8	=8
2D	1A	2d	2f
1D	.	2.f	1d
.	2.B-y	.	.
.	.	4e	.
2BB-y	.	2d	2f
.	4A	.	.
=9	=9	=9	=9
2C	2G	2c	2e
2D	2F	2.B-y	2.d
1E	1G	.	.
.	.	4A	4c#i
.	.	[2G	4c#i
.	.	.	8BniL
.	.	.	8c#iJ
=10	=10	=10	=10
1D	1A	2G]	1d
.	.	2F#i	.
2r	2B-y	2G	2r
2D	2d	2f	2a
=11	=11	=11	=11
2D	2d	2f	2a
2D	2d	2f	2a
1BB-y	1d	1f	1b-y
=12	=12	=12	=12
1F	2c	2f	2a
.	2A	2c	1f
2.BB-y	2B-y	2d	.
.	2d	2f	2b-y
4BB-y	.	.	.
=13	=13	=13	=13
2C	2.c	1e	2a
2C	.	.	2.g
.	4B-y	.	.
1D	1A	1d	.
.	.	.	4f#i
.	.	.	4f#i
.	.	.	8eL
.	.	.	8f#iJ
=14	=14	=14	=14
1GG	1G	1d	1g
2r	2r	2r	2r
2D	2A	2d	2f
=15	=15	=15	=15
2G	2B-y	2d	2g
2D	2A	2d	2f
2B-y	2G	2d	2g
2A	2F	[2f	2a
=16	=16	=16	=16
1G	1B-y	2f]	1b-y
.	.	2e	.
1F	1c	1f	1a
=17	=17	=17	=17
2r	2r	2r	2r
2BB-y	2B-y	2d	2f
2BB-y	2B-y	2d	2f
2BB-y	2B-y	2d	2f
=18	=18	=18	=18
1E-i	1B-y	1e-X	1g
1E-i	1B-y	1e-i	1g
=19	=19	=19	=19
1BB-y	1B-y	1d	1f
1F	1A	1c	1f
=20	=20	=20	=20
2C	2G	2c	2e
2D	2F	2A	2d
1AA	2.E	1A	4c
.	.	.	4B-y
.	.	.	4c
.	4F	.	4d
=21	=21	=21	=21
1GG	2.G	1B-y	2e
.	.	.	1d
.	4F	.	.
1AA	1E	1A	.
.	.	.	2c#i
=22	=22	=22	=22
1D	1D	1A	1d
[1BB-y	[1d	[1f	[1b-y
=23	=23	=23	=23
1BB-]	1d]	1f]	1b-]
[1F	1c	[1f	1a
=24	=24	=24	=24
2F]	1A	2f]	1cc
2F	.	2f	.
2G	2G	2d	2b-y
2D	2F	[2d	2a
=25	=25	=25	=25
1E	1G	2d]	1g
.	.	2c	.
1D	1A	2d	2f
.	.	2d	2a
=26	=26	=26	=26
0r	0r	2.d	2.b-y
.	.	4d	4b-y
.	.	2c	2a
.	.	2B-y	[2g
=27	=27	=27	=27
2r	2r	1A	4g]
.	.	.	8f#iL
.	.	.	8eJ
2A	2c	.	2f#i
2.B-y	2.d	1G	1g
4B-y	4d	.	.
=28	=28	=28	=28
2A	2c	0r	0r
1G	2B-y	.	.
.	1A	.	.
2F#i	.	.	.
=29	=29	=29	=29
2G	2G	2r	2r
2C	2c	2e	2g
2G	2B-y	2d	2g
2C	[2c	[2e	2g
=30	=30	=30	=30
1G	2c]	2e]	1g
.	2Bni	2d	.
1C	1c	1e	1g
=31	=31	=31	=31
2D	2.A	2d	2f
2D	.	2f	2d
.	4B-y	.	.
2C	2c	2e	2e
2D	[2A	[2d	2f
=32	=32	=32	=32
1E	2A]	2d]	1g
.	2G	2c#i	.
1D	1A	1d	1f
=33	=33	=33	=33
2r	2r	2r	2r
2D	2A	2d	2f
2D	2A	2d	2f
2G	2B-y	2d	2g
=34	=34	=34	=34
2F	2c	2f	2a
2G	2B-y	2d	2b-y
1C	2.c	2.e	2g
.	.	.	[2cc
.	4B-y	4d	.
=35	=35	=35	=35
2.F	2A	1c	4cc]
.	.	.	4b-y
.	2.f	.	4a
4E	.	.	4g
2.D	.	2.f	2f
.	4e	.	.
.	[2d	.	[2b-y
4C	.	4e	.
=36	=36	=36	=36
1BB-y	4d]	1d	4b-]
.	4c	.	4a
.	4B-y	.	4g
.	4A	.	4f
2C	1G	1c	4e
.	.	.	4d
2E-i	.	.	[2g
=37	=37	=37	=37
1D	1A	1d	2g]
.	.	.	2f#i
1GG	1G	1d	1g
=38	=38	=38	=38
2r	2r	2r	2r
2D	2A	2d	2f
2D	2A	2d	2f
2G	2B-y	2d	2g
=39	=39	=39	=39
2F	2c	2f	2a
2G	2B-y	2d	2b-y
1C	2.c	2.e	2g
.	.	.	[2cc
.	4B-y	4d	.
=40	=40	=40	=40
2.F	2A	1c	4cc]
.	.	.	4b-y
.	2.f	.	4a
4E	.	.	4g
2.D	.	2.f	2f
.	4e	.	.
.	[2d	.	[2b-y
4C	.	4e	.
=41	=41	=41	=41
1BB-y	4d]	1d	4b-]
.	4c	.	4a
.	4B-y	.	4g
.	4A	.	4f
2C	1G	1c	4e
.	.	.	4d
2E-i	.	.	[2g
=42	=42	=42	=42
1D	1A	1d	2g]
.	.	.	2f#i
[1GGl	[1Gl	[1dl	[1gl
=43	=43	=43	=43
00GG]	00G]	00d]	00g]
==	==	==	==
*-	*-	*-	*-
!!!system-decoration: [*]
!!!RDF**kern: i = editorial accidental
!!!RDF**kern: l = terminal long
!!!ENC: Benjamin Ory
!!!END: 2021/2/11
!!!EED: Benjamin Ory
!!!EEV: 2021/04/29
!!!YEC: Copyright 2021 Benjamin Ory, All Rights Reserved
!!!ONB: Translated from MusicXML on 2021/04/29
